weather-icons/wi-showers.svg

<?xml version="1.0" encoding="UTF-8" standalone="no"?>
<svg
   xmlns:dc="http://purl.org/dc/elements/1.1/"
   xmlns:cc="http://creativecommons.org/ns#"
   xmlns:rdf="http://www.w3.org/1999/02/22-rdf-syntax-ns#"
   xmlns:svg="http://www.w3.org/2000/svg"
   xmlns="http://www.w3.org/2000/svg"
   xmlns:sodipodi="http://sodipodi.sourceforge.net/DTD/sodipodi-0.dtd"
   xmlns:inkscape="http://www.inkscape.org/namespaces/inkscape"
   width="100px"
   height="100px"
   viewBox="0 0 100 100"
   version="1.1"
   id="svg5"
   sodipodi:docname="wi-showers.svg"
   inkscape:version="1.0.2 (e86c870879, 2021-01-15)">
  <metadata
     id="metadata11">
    <rdf:RDF>
      <cc:Work
         rdf:about="">
        <dc:format>image/svg+xml</dc:format>
        <dc:type
           rdf:resource="http://purl.org/dc/dcmitype/StillImage" />
      </cc:Work>
    </rdf:RDF>
  </metadata>
  <defs
     id="defs9" />
  <sodipodi:namedview
     pagecolor="#ffffff"
     bordercolor="#666666"
     borderopacity="1"
     objecttolerance="10"
     gridtolerance="10"
     guidetolerance="10"
     inkscape:pageopacity="0"
     inkscape:pageshadow="2"
     inkscape:window-width="1920"
     inkscape:window-height="1016"
     id="namedview7"
     showgrid="false"
     inkscape:zoom="7.94"
     inkscape:cx="50"
     inkscape:cy="50"
     inkscape:window-x="0"
     inkscape:window-y="0"
     inkscape:window-maximized="1"
     inkscape:current-layer="surface1" />
  <g
     id="surface1">
    <path
       style=" stroke:none;fill-rule:nonzero;fill:rgb(0%,0%,0%);fill-opacity:1;"
       d="M 60.367188,63.265625"
       id="path27" />
    <path
       style="stroke:none;fill-rule:nonzero;fill:#0000ff;fill-opacity:1"
       d="m 60.367188,63.265625 c 0,-0.09766 0.06641,-0.398437 0.167968,-0.867187 l 1,-3.433594 c 0.132813,-0.699219 0.429688,-1.230469 0.964844,-1.566406 0.535156,-0.332032 1.066406,-0.5 1.632812,-0.464844 0.132813,-0.03516 0.433594,0 0.800782,0.101562 0.734375,0.164063 1.300781,0.597656 1.734375,1.265625 0.398437,0.566407 0.464843,1.265625 0.230469,2.164063 l -0.796876,3.433594 c -0.433593,1.433593 -1.269531,2.167968 -2.535156,2.167968 C 63.367188,66.066406 63,66 62.433594,65.867188 c -0.699219,-0.199219 -1.199219,-0.566407 -1.535156,-1.035157 -0.363282,-0.53125 -0.53125,-1.03125 -0.53125,-1.566406 z"
       id="path25" />
    <path
       style="stroke:none;fill-rule:nonzero;fill:#0000ff;fill-opacity:1"
       d="m 55.765625,79.132812 c 0,-0.234374 0.03516,-0.5 0.101563,-0.800781 l 0.933593,-3.296875 c 0.234375,-0.800781 0.664063,-1.402344 1.367188,-1.800781 0.699219,-0.402344 1.367187,-0.5 2.097656,-0.300781 0.769531,0.234375 1.367187,0.667968 1.769531,1.367187 0.398438,0.664063 0.5,1.367188 0.296875,2.097657 l -0.964843,3.535156 c -0.332032,1.367187 -1.199219,2.03125 -2.632813,2.03125 -0.300781,0 -0.601563,-0.03125 -0.867187,-0.09766 -0.667969,-0.132813 -1.167969,-0.46875 -1.535157,-1 C 56,80.265625 55.800781,79.699219 55.765625,79.132812 Z"
       id="path23" />
    <path
       style="stroke:none;fill-rule:nonzero;fill:#0000ff;fill-opacity:1"
       d="m 46.367188,73.535156 c 0,-0.203125 0.03125,-0.46875 0.132812,-0.835937 l 0.898438,-3.433594 c 0.234374,-0.765625 0.667968,-1.332031 1.367187,-1.699219 0.667969,-0.398437 1.402344,-0.464844 2.167969,-0.234375 0.765625,0.203125 1.300781,0.632813 1.699218,1.300781 C 53,69.300781 53.066406,70 52.832031,70.800781 l -0.796875,3.300781 c -0.433594,1.5 -1.234375,2.265626 -2.402344,2.265626 -0.132812,0 -0.5,-0.06641 -1.03125,-0.199219 -0.734374,-0.132813 -1.269531,-0.46875 -1.636718,-1 -0.398438,-0.5 -0.597656,-1.066407 -0.597656,-1.632813 z"
       id="path21" />
    <path
       style="stroke:none;fill-rule:nonzero;fill:#0000ff;fill-opacity:1"
       d="m 41.898438,89.433594 c 0,-0.101563 0.03516,-0.234375 0.06641,-0.433594 0.03516,-0.199219 0.07031,-0.300781 0.07031,-0.398438 L 43,85.300781 C 43.199219,84.5 43.667969,83.898438 44.332031,83.5 45,83.101562 45.734375,83 46.5,83.234375 c 0.765625,0.230469 1.300781,0.664063 1.699219,1.367187 0.402343,0.699219 0.433593,1.398438 0.234375,2.164063 l -0.832032,3.46875 c -0.367187,1.367187 -1.234374,2.03125 -2.667968,2.03125 -0.167969,0 -0.433594,-0.03125 -0.800782,-0.132813 C 43.398438,92 42.867188,91.667969 42.5,91.132812 42.101562,90.601562 41.898438,90.035156 41.898438,89.433594 Z"
       id="path19" />
    <path
       style="stroke:none;fill-rule:nonzero;fill:#0000ff;fill-opacity:1"
       d="m 37.800781,62.933594 c 0,-0.06641 0,-0.199219 0.03125,-0.367188 0.03516,-0.167968 0.03516,-0.265625 0.03516,-0.300781 l 1,-3.5 c 0.199218,-0.632813 0.566406,-1.132813 1.066406,-1.5 0.5,-0.332031 1.03125,-0.5 1.566406,-0.5 0.06641,0 0.167969,0 0.265625,0 0.101563,0 0.199219,0.03516 0.300781,0.03516 0.101563,0.03125 0.199219,0.03125 0.265625,0.03125 0.769531,0.234375 1.335938,0.667969 1.703125,1.335938 0.398438,0.664062 0.464844,1.367187 0.230469,2.132812 l -0.800781,3.332031 c -0.230469,0.933594 -0.664063,1.566407 -1.332032,1.96875 C 41.464844,66 40.734375,66 39.964844,65.667969 c -0.730469,-0.203125 -1.265625,-0.566407 -1.632813,-1.132813 -0.367187,-0.570312 -0.53125,-1.070312 -0.53125,-1.601562 z"
       id="path17" />
    <path
       style="stroke:none;fill-rule:nonzero;fill:#0000ff;fill-opacity:1"
       d="m 33.398438,79 c 0,-0.101562 0.03516,-0.265625 0.06641,-0.433594 0.03516,-0.167968 0.07031,-0.300781 0.07031,-0.367187 l 0.898438,-3.433594 c 0.234375,-0.730469 0.667968,-1.332031 1.332031,-1.699219 0.667969,-0.398437 1.367187,-0.464844 2.132813,-0.234375 0.769531,0.234375 1.335937,0.667969 1.734374,1.335938 0.402344,0.664062 0.46875,1.367187 0.234376,2.132812 l -0.800782,3.367188 c -0.433594,1.464843 -1.265625,2.199219 -2.53125,2.199219 -0.101562,0 -0.167968,0 -0.300781,0 -0.101563,0 -0.234375,-0.03516 -0.367187,-0.03516 -0.132813,-0.03125 -0.234376,-0.03125 -0.332032,-0.03125 C 34.832031,81.601562 34.300781,81.199219 33.933594,80.667969 33.566406,80.132812 33.398438,79.535156 33.398438,79 Z"
       id="path15" />
    <path
       style=" stroke:none;fill-rule:nonzero;fill:rgb(0%,0%,0%);fill-opacity:1;"
       d="m 15.332031,56.433594 c 0,-3.867188 1.203125,-7.265625 3.632813,-10.265625 2.402344,-3 5.5,-4.933594 9.269531,-5.769531 0.964844,-4.597657 3.265625,-8.332032 6.898437,-11.296876 3.632813,-2.96875 7.800782,-4.433593 12.535157,-4.433593 4.632812,0 8.765625,1.433593 12.398437,4.265625 3.601563,2.832031 5.96875,6.5 7.066406,11 h 1.132813 c 3,0 5.769531,0.734375 8.269531,2.199218 2.53125,1.46875 4.5,3.46875 5.964844,6 1.433594,2.535157 2.167969,5.300782 2.167969,8.300782 0,4.464844 -1.535157,8.265625 -4.566407,11.464844 -3.066406,3.203124 -6.800781,4.867187 -11.234374,5 -0.402344,0 -0.601563,-0.199219 -0.601563,-0.566407 v -4.464843 c 0,-0.367188 0.199219,-0.566407 0.601563,-0.566407 2.800781,-0.234375 5.234374,-1.402343 7.234374,-3.5 2,-2.101562 3,-4.566406 3,-7.402343 0,-2.964844 -1.066406,-5.53125 -3.203124,-7.699219 -2.132813,-2.132813 -4.664063,-3.234375 -7.632813,-3.234375 h -5.433594 c -0.398437,0 -0.632812,-0.199219 -0.730469,-0.597656 l -0.234374,-1.902344 c -0.234376,-2.363282 -1,-4.53125 -2.332032,-6.464844 C 58.199219,34.566406 56.5,33.066406 54.433594,31.964844 c -2.066406,-1.097656 -4.332032,-1.632813 -6.734375,-1.632813 -3.664063,0 -6.832031,1.203125 -9.53125,3.632813 -2.703125,2.433594 -4.234375,5.46875 -4.566407,9.070312 l -0.234374,1.796875 c 0,0.300781 -0.167969,0.46875 -0.535157,0.46875 l -1.796875,0.367188 C 28.234375,45.898438 25.867188,47.035156 24,49.101562 c -1.898438,2.066407 -2.832031,4.5 -2.832031,7.332032 0,2.898437 1,5.398437 2.964843,7.5 1.96875,2.101562 4.367188,3.234375 7.234376,3.398437 0.398437,0 0.597656,0.203125 0.597656,0.566407 v 4.46875 c 0,0.367187 -0.199219,0.566406 -0.597656,0.566406 -2.199219,-0.101563 -4.265626,-0.601563 -6.265626,-1.5 -2,-0.898438 -3.703124,-2.101563 -5.101562,-3.566406 -1.433594,-1.46875 -2.566406,-3.167969 -3.398438,-5.167969 -0.835937,-2 -1.269531,-4.066407 -1.269531,-6.265625 z"
       id="path2" />
  </g>
</svg>

<?xml version="1.0" encoding="UTF-8"?>
<svg xmlns="http://www.w3.org/2000/svg" xmlns:xlink="http://www.w3.org/1999/xlink" width="100px" height="100px" viewBox="0 0 100 100" version="1.1">
<g id="surface1">
<path style=" stroke:none;fill-rule:nonzero;fill:rgb(0%,0%,0%);fill-opacity:1;" d="M 15.332031 56.433594 C 15.332031 52.566406 16.535156 49.167969 18.964844 46.167969 C 21.367188 43.167969 24.464844 41.234375 28.234375 40.398438 C 29.199219 35.800781 31.5 32.066406 35.132812 29.101562 C 38.765625 26.132812 42.933594 24.667969 47.667969 24.667969 C 52.300781 24.667969 56.433594 26.101562 60.066406 28.933594 C 63.667969 31.765625 66.035156 35.433594 67.132812 39.933594 L 68.265625 39.933594 C 71.265625 39.933594 74.035156 40.667969 76.535156 42.132812 C 79.066406 43.601562 81.035156 45.601562 82.5 48.132812 C 83.933594 50.667969 84.667969 53.433594 84.667969 56.433594 C 84.667969 60.898438 83.132812 64.699219 80.101562 67.898438 C 77.035156 71.101562 73.300781 72.765625 68.867188 72.898438 C 68.464844 72.898438 68.265625 72.699219 68.265625 72.332031 L 68.265625 67.867188 C 68.265625 67.5 68.464844 67.300781 68.867188 67.300781 C 71.667969 67.066406 74.101562 65.898438 76.101562 63.800781 C 78.101562 61.699219 79.101562 59.234375 79.101562 56.398438 C 79.101562 53.433594 78.035156 50.867188 75.898438 48.699219 C 73.765625 46.566406 71.234375 45.464844 68.265625 45.464844 L 62.832031 45.464844 C 62.433594 45.464844 62.199219 45.265625 62.101562 44.867188 L 61.867188 42.964844 C 61.632812 40.601562 60.867188 38.433594 59.535156 36.5 C 58.199219 34.566406 56.5 33.066406 54.433594 31.964844 C 52.367188 30.867188 50.101562 30.332031 47.699219 30.332031 C 44.035156 30.332031 40.867188 31.535156 38.167969 33.964844 C 35.464844 36.398438 33.933594 39.433594 33.601562 43.035156 L 33.367188 44.832031 C 33.367188 45.132812 33.199219 45.300781 32.832031 45.300781 L 31.035156 45.667969 C 28.234375 45.898438 25.867188 47.035156 24 49.101562 C 22.101562 51.167969 21.167969 53.601562 21.167969 56.433594 C 21.167969 59.332031 22.167969 61.832031 24.132812 63.933594 C 26.101562 66.035156 28.5 67.167969 31.367188 67.332031 C 31.765625 67.332031 31.964844 67.535156 31.964844 67.898438 L 31.964844 72.367188 C 31.964844 72.734375 31.765625 72.933594 31.367188 72.933594 C 29.167969 72.832031 27.101562 72.332031 25.101562 71.433594 C 23.101562 70.535156 21.398438 69.332031 20 67.867188 C 18.566406 66.398438 17.433594 64.699219 16.601562 62.699219 C 15.765625 60.699219 15.332031 58.632812 15.332031 56.433594 Z M 33.398438 79 C 33.398438 78.898438 33.433594 78.734375 33.464844 78.566406 C 33.5 78.398438 33.535156 78.265625 33.535156 78.199219 L 34.433594 74.765625 C 34.667969 74.035156 35.101562 73.433594 35.765625 73.066406 C 36.433594 72.667969 37.132812 72.601562 37.898438 72.832031 C 38.667969 73.066406 39.234375 73.5 39.632812 74.167969 C 40.035156 74.832031 40.101562 75.535156 39.867188 76.300781 L 39.066406 79.667969 C 38.632812 81.132812 37.800781 81.867188 36.535156 81.867188 C 36.433594 81.867188 36.367188 81.867188 36.234375 81.867188 C 36.132812 81.867188 36 81.832031 35.867188 81.832031 C 35.734375 81.800781 35.632812 81.800781 35.535156 81.800781 C 34.832031 81.601562 34.300781 81.199219 33.933594 80.667969 C 33.566406 80.132812 33.398438 79.535156 33.398438 79 Z M 37.800781 62.933594 C 37.800781 62.867188 37.800781 62.734375 37.832031 62.566406 C 37.867188 62.398438 37.867188 62.300781 37.867188 62.265625 L 38.867188 58.765625 C 39.066406 58.132812 39.433594 57.632812 39.933594 57.265625 C 40.433594 56.933594 40.964844 56.765625 41.5 56.765625 C 41.566406 56.765625 41.667969 56.765625 41.765625 56.765625 C 41.867188 56.765625 41.964844 56.800781 42.066406 56.800781 C 42.167969 56.832031 42.265625 56.832031 42.332031 56.832031 C 43.101562 57.066406 43.667969 57.5 44.035156 58.167969 C 44.433594 58.832031 44.5 59.535156 44.265625 60.300781 L 43.464844 63.632812 C 43.234375 64.566406 42.800781 65.199219 42.132812 65.601562 C 41.464844 66 40.734375 66 39.964844 65.667969 C 39.234375 65.464844 38.699219 65.101562 38.332031 64.535156 C 37.964844 63.964844 37.800781 63.464844 37.800781 62.933594 Z M 41.898438 89.433594 C 41.898438 89.332031 41.933594 89.199219 41.964844 89 C 42 88.800781 42.035156 88.699219 42.035156 88.601562 L 43 85.300781 C 43.199219 84.5 43.667969 83.898438 44.332031 83.5 C 45 83.101562 45.734375 83 46.5 83.234375 C 47.265625 83.464844 47.800781 83.898438 48.199219 84.601562 C 48.601562 85.300781 48.632812 86 48.433594 86.765625 L 47.601562 90.234375 C 47.234375 91.601562 46.367188 92.265625 44.933594 92.265625 C 44.765625 92.265625 44.5 92.234375 44.132812 92.132812 C 43.398438 92 42.867188 91.667969 42.5 91.132812 C 42.101562 90.601562 41.898438 90.035156 41.898438 89.433594 Z M 46.367188 73.535156 C 46.367188 73.332031 46.398438 73.066406 46.5 72.699219 L 47.398438 69.265625 C 47.632812 68.5 48.066406 67.933594 48.765625 67.566406 C 49.433594 67.167969 50.167969 67.101562 50.933594 67.332031 C 51.699219 67.535156 52.234375 67.964844 52.632812 68.632812 C 53 69.300781 53.066406 70 52.832031 70.800781 L 52.035156 74.101562 C 51.601562 75.601562 50.800781 76.367188 49.632812 76.367188 C 49.5 76.367188 49.132812 76.300781 48.601562 76.167969 C 47.867188 76.035156 47.332031 75.699219 46.964844 75.167969 C 46.566406 74.667969 46.367188 74.101562 46.367188 73.535156 Z M 55.765625 79.132812 C 55.765625 78.898438 55.800781 78.632812 55.867188 78.332031 L 56.800781 75.035156 C 57.035156 74.234375 57.464844 73.632812 58.167969 73.234375 C 58.867188 72.832031 59.535156 72.734375 60.265625 72.933594 C 61.035156 73.167969 61.632812 73.601562 62.035156 74.300781 C 62.433594 74.964844 62.535156 75.667969 62.332031 76.398438 L 61.367188 79.933594 C 61.035156 81.300781 60.167969 81.964844 58.734375 81.964844 C 58.433594 81.964844 58.132812 81.933594 57.867188 81.867188 C 57.199219 81.734375 56.699219 81.398438 56.332031 80.867188 C 56 80.265625 55.800781 79.699219 55.765625 79.132812 Z M 60.367188 63.265625 C 60.367188 63.167969 60.433594 62.867188 60.535156 62.398438 L 61.535156 58.964844 C 61.667969 58.265625 61.964844 57.734375 62.5 57.398438 C 63.035156 57.066406 63.566406 56.898438 64.132812 56.933594 C 64.265625 56.898438 64.566406 56.933594 64.933594 57.035156 C 65.667969 57.199219 66.234375 57.632812 66.667969 58.300781 C 67.066406 58.867188 67.132812 59.566406 66.898438 60.464844 L 66.101562 63.898438 C 65.667969 65.332031 64.832031 66.066406 63.566406 66.066406 C 63.367188 66.066406 63 66 62.433594 65.867188 C 61.734375 65.667969 61.234375 65.300781 60.898438 64.832031 C 60.535156 64.300781 60.367188 63.800781 60.367188 63.265625 Z M 60.367188 63.265625 "/>
</g>
</svg>
